X: 4281
M: C|
L: 1/8
K: D
(AG) |\
[1 BAGB AGFA | G2E2E2 :|\
[2 defd efge | f2d2d2 |:\
(fg) |\
agfe dcBA |
bagf edcB | c2A2 A2(AG) |\
defd efge | f2d2d2 :|


